!!!id: EG102
!!!page: 75
!!!COM: Anonymous
!!!LYR: Anonymous
!!!PTL@@FR: Chansons Populaires du Canada
!!!OTL@@FR: Vive Napoléon!
!!!PUB: G. E. Desbarats
!!!YEM:
!!!PDT: 1865
!!!SMA:
!!!OMD:
!!!AGN-Laforte:
!!!AGN-type:
!!!AGN-rime:
**kern
*clefG2
*k[f#]
*G:
*M3/8
*
*
8d
=1
4g
8a
=2
4b
8cc
=3
4dd
8b
=4
4.dd
=5
8ee
8ee
8ee
!!LO:PB:g=original
=6
4dd
8r
8d
=7
4g
8a
=8
4b
8cc
=9
4dd
8b
=10
4.dd
=11
8ee
8ee
8ee
!!LO:PB:g=original
=12
[4.dd
=13
8dd]
8r
8b
=14
4dd
8dd
=15
8ddq
4cc
8b
=16
4.cc
=17
8a
8b/
8cc
!!LO:PB:g=original
=18
8b/
8a
8g
=19
4.b/
=20
8a
8r
8b/
=21
4dd
8dd
=22
8ddqq
4cc
8b
=23
4cc
!!LO:PB:g=original
=24
8a
8b/
8cc
=25
4dd
8d
=26
[4.g
=27
8g]
8r
==||
8r
==||
*
*
==|
!!!RWG: m.3 and m.9 contain a pair of beamed 16th grace notes in upper voice on dd & cc
!!!RWG: m.23 contains a solitary quarter note instead of the more appropriate dotted quarter in original, likely due to a print error
*-
